X:1
T:Title
%%score { ( 1 3 ) | ( 2 4 ) }
L:1/8
M:4/4
K:Bb
V:1 treble nm="Grand Piano"
V:3 treble 
V:2 bass 
V:4 bass 
V:1
 z4 z2[Q:1/4=100] [B,D]>[CE] | [DF]2 F2 F>F G>A | [DB]6 [FB]>c | d2 d2 c2 B2 |[M:3/4] c6 | %5
[M:1/4] D>[CE] |[M:4/4] [DF]2 [DF]2 [EG]>[FA] [FB]>c | d6 [Ge]2 | d2 B2 c2 A2 |[M:3/4] [B,DB]6 | %10
[M:1/4] F>B |[M:4/4] d6 z2 | D2 E2 F2 [DB]>[Ec] | B2 A2 A2 c>d | c2 [DB]2 [DB]2 F>B | d6 z2 | %16
 F6 z2 | B2 A2 e2 A2 |[M:3/4] [DB]6 |] %19
V:2
 z4 z2 [B,,F,]>[B,,F,] | [B,,B,]2 [D,B,]2 [F,A,E]>[F,A,E] [F,A,E]>[F,CE] | %2
 [B,,B,]6 [D,B,]>[K:treble][F,A,F] | [B,F]2 [B,F]2 [A,CF]2 [G,C=E]2 |[M:3/4][K:bass] [F,A,F]6 | %5
[M:1/4] [B,,F,B,]>[B,,F,] |[M:4/4] [B,,B,]2 [B,,B,]2 [E,B,]>[E,C] [D,B,]>[K:treble][F,A,F] | %7
 [B,F]6[K:bass] [E,B,]2 | [F,B,F]2 [F,B,D]2 [F,A,E]2 [F,CE]2 |[M:3/4] B,,6 |[M:1/4][K:treble] D>D | %11
[M:4/4] F6[K:bass] z2 | [B,,B,]2 [C,A,]2 [D,B,]2 [B,,B,]>[B,,B,] | %13
 [F,D]2 [F,C]2 [F,C]2 [F,A,E]>[F,A,F] | [F,A,E]2 [B,,B,]2 [B,,F,]2[K:treble] D>D | F6[K:bass] z2 | %16
 [B,,B,]2 [E,A,]2 D,2 [B,,F,]>[B,,F,] | [F,D]2 [F,CF]2 [F,A,F]2 [F,CE]2 |[M:3/4] [B,,B,]6 |] %19
V:3
 x8 | x8 | x8 | x8 |[M:3/4] x6 |[M:1/4] x2 |[M:4/4] x8 | x8 | x8 |[M:3/4] x6 |[M:1/4] x2 | %11
[M:4/4] z2 (3:2:2B,2 B, (3B,[Fc][FB] (3[G-c][GB]G | F4 z4 | x8 | x8 | %15
 z2 (3:2:2B,2 B, (3B,[Fc][FB] (3[G-c][GB]G | D2 C2 B,2 [DB]>[Ec] | x8 |[M:3/4] x6 |] %19
V:4
 x8 | x8 | x15/2[K:treble] x/ | x8 |[M:3/4][K:bass] x6 |[M:1/4] x2 |[M:4/4] x15/2[K:treble] x/ | %7
 x6[K:bass] x2 | x8 |[M:3/4] x6 |[M:1/4][K:treble] x2 | %11
[M:4/4] z2[K:bass] (3:2:2B,,2 B,, (3B,,[C,A,][D,B,] (3:2:2[E,B,]2 [E,B,E] | x8 | x8 | %14
 x6[K:treble] x2 | z2[K:bass] (3:2:2B,,2 B,, (3B,,[C,A,][D,B,] (3:2:2[E,B,]2 [E,B,E] | x8 | x8 | %18
[M:3/4] x6 |] %19

